public/static/img/follow/chart.svg

<svg width="254" height="220" viewBox="0 0 254 220" fill="none" xmlns="http://www.w3.org/2000/svg">
<line x1="4.37114e-08" y1="9.5" x2="254" y2="9.50002" stroke="white" stroke-opacity="0.06" stroke-dasharray="4 4"/>
<line x1="4.37114e-08" y1="39.5" x2="254" y2="39.5" stroke="white" stroke-opacity="0.06" stroke-dasharray="4 4"/>
<line x1="4.37114e-08" y1="69.5" x2="254" y2="69.5" stroke="white" stroke-opacity="0.06" stroke-dasharray="4 4"/>
<line x1="4.37114e-08" y1="99.5" x2="254" y2="99.5" stroke="white" stroke-opacity="0.06" stroke-dasharray="4 4"/>
<line x1="4.37114e-08" y1="129.5" x2="254" y2="129.5" stroke="white" stroke-opacity="0.06" stroke-dasharray="4 4"/>
<line x1="4.37114e-08" y1="159.5" x2="254" y2="159.5" stroke="white" stroke-opacity="0.06" stroke-dasharray="4 4"/>
<line x1="4.37114e-08" y1="189.5" x2="254" y2="189.5" stroke="white" stroke-opacity="0.06" stroke-dasharray="4 4"/>
<line x1="4.37114e-08" y1="219.5" x2="254" y2="219.5" stroke="white" stroke-opacity="0.1"/>
<path d="M10.9132 183.683L7.72205 173.717H69.1241L67.1434 177.167L65.2727 186.75L64.8325 195.95L62.8518 202.083H61.4213L60.541 204L58.0101 202.083L56.9097 198.633L54.7089 202.083L53.7185 198.633V195.95L51.4077 189.817L41.7242 181.383H40.954H39.5234L38.203 183.683L37.6528 189.817H36.2223L35.0118 187.9H33.9114H31.3805L30.0601 192.117H27.8593H27.3091H26.4288L25.2183 194.033L24.338 195.95L21.1469 189.817H17.6256L15.865 187.9L13.224 183.683H10.9132Z" fill="url(#paint0_linear_0_1)"/>
<path d="M7.72205 173.717L10.9132 183.683H13.224L15.865 187.9L17.6256 189.817H21.1469L24.338 195.95L25.2183 194.033L26.4288 192.117H27.3091H27.8593H30.0601L31.3805 187.9H33.9114H35.0118L36.2223 189.817H37.6528L38.203 183.683L39.5234 181.383H40.954H41.7242L51.4077 189.817L53.7185 195.95V198.633L54.7089 202.083L56.9097 198.633L58.0101 202.083L60.541 204L61.4213 202.083H62.8518L64.8325 195.95L65.2727 186.75L67.1434 177.167L69.1241 173.717" stroke="#FF4834" stroke-width="2"/>
<path d="M3.54055 169.5L2 160.3V173.717H7.72205L5.96142 169.5H3.54055Z" fill="url(#paint1_linear_0_1)"/>
<path d="M2 160.3L3.54055 169.5H5.96142L7.72205 173.717" stroke="#00D77C" stroke-width="2"/>
<path d="M74.736 164.133L69.124 173.717H253V33.0333L249.919 36.4833H244.967L241.996 20L233.303 23.0667L221.859 24.9833L215.256 28.05L208.104 36.4833L202.602 33.0333L199.191 45.6833L192.038 56.4167H185.876L180.924 68.6833L177.513 71.3667L171.461 79.8L166.729 82.1L163.868 79.8L160.017 75.2H156.715L152.204 77.5L145.271 71.3667L140.32 86.3167L137.018 93.6L132.617 101.65H127.775L125.794 93.6L122.383 88.2333L120.072 90.5333L118.202 99.35L115.341 104.333H110.719L105.767 111.617L104.117 120.05L101.806 125.417L98.9447 128.483L97.4042 140.75L94.3231 154.933L91.0219 148.033H88.8211L86.9504 154.933L83.9794 164.133H81.4484L79.9079 160.3L78.3673 164.133H74.736Z" fill="url(#paint2_linear_0_1)"/>
<path d="M69.124 173.717L74.736 164.133H78.3673L79.9079 160.3L81.4484 164.133H83.9794L86.9504 154.933L88.8211 148.033H91.0219L94.3231 154.933L97.4042 140.75L98.9447 128.483L101.806 125.417L104.117 120.05L105.767 111.617L110.719 104.333H115.341L118.202 99.35L120.072 90.5333L122.383 88.2333L125.794 93.6L127.775 101.65H132.617L137.018 93.6L140.32 86.3167L145.271 71.3667L152.204 77.5L156.715 75.2H160.017L163.868 79.8L166.729 82.1L171.461 79.8L177.513 71.3667L180.924 68.6833L185.876 56.4167H192.038L199.191 45.6833L202.602 33.0333L208.104 36.4833L215.256 28.05L221.859 24.9833L233.303 23.0667L241.996 20L244.967 36.4833H249.919L253 33.0333" stroke="#00D77C" stroke-width="2"/>
<circle cx="61" cy="205" r="4" fill="#FF4834"/>
<circle cx="241" cy="20" r="4" fill="#00D77C"/>
<path d="M67.7523 204.484H73.8123V205.3H67.7523V204.484ZM78.138 199.264C78.93 199.264 79.582 199.492 80.094 199.948C80.606 200.412 80.862 201.016 80.862 201.76C80.862 202.496 80.582 203.168 80.022 203.776C79.694 204.12 79.102 204.58 78.246 205.156C77.158 205.884 76.534 206.54 76.374 207.124H80.874V208H75.162C75.162 207.208 75.446 206.5 76.014 205.876C76.382 205.46 77.002 204.952 77.874 204.352C78.554 203.864 79.002 203.508 79.218 203.284C79.658 202.804 79.878 202.292 79.878 201.748C79.878 201.228 79.722 200.824 79.41 200.536C79.098 200.248 78.662 200.104 78.102 200.104C77.502 200.104 77.05 200.304 76.746 200.704C76.402 201.096 76.226 201.668 76.218 202.42H75.234C75.234 201.468 75.502 200.704 76.038 200.128C76.566 199.552 77.266 199.264 78.138 199.264ZM85.2973 199.264C86.1293 199.264 86.7933 199.472 87.2893 199.888C87.7853 200.312 88.0333 200.88 88.0333 201.592C88.0333 202.56 87.5653 203.2 86.6293 203.512C87.1413 203.672 87.5253 203.916 87.7813 204.244C88.0693 204.58 88.2133 205 88.2133 205.504C88.2133 206.28 87.9413 206.916 87.3973 207.412C86.8453 207.916 86.1253 208.168 85.2373 208.168C84.4373 208.168 83.7733 207.96 83.2453 207.544C82.6373 207.04 82.2973 206.308 82.2253 205.348H83.2213C83.2453 206.02 83.4693 206.532 83.8933 206.884C84.2613 207.18 84.7093 207.328 85.2373 207.328C85.8453 207.328 86.3373 207.152 86.7133 206.8C87.0573 206.456 87.2293 206.036 87.2293 205.54C87.2293 205.028 87.0613 204.628 86.7253 204.34C86.3973 204.06 85.9333 203.92 85.3333 203.92H84.6373V203.152H85.2973C85.8653 203.152 86.3013 203.024 86.6053 202.768C86.9093 202.504 87.0613 202.132 87.0613 201.652C87.0613 201.18 86.9133 200.808 86.6173 200.536C86.3133 200.256 85.8773 200.116 85.3093 200.116C84.7253 200.116 84.2773 200.268 83.9653 200.572C83.6373 200.876 83.4413 201.32 83.3773 201.904H82.4053C82.4773 201.08 82.7813 200.432 83.3173 199.96C83.8133 199.496 84.4733 199.264 85.2973 199.264ZM90.3926 206.572C90.6006 206.572 90.7726 206.64 90.9086 206.776C91.0526 206.904 91.1246 207.072 91.1246 207.28C91.1246 207.488 91.0526 207.66 90.9086 207.796C90.7566 207.932 90.5846 208 90.3926 208C90.2006 208 90.0286 207.932 89.8766 207.796C89.7326 207.652 89.6606 207.48 89.6606 207.28C89.6606 207.072 89.7326 206.904 89.8766 206.776C90.0126 206.64 90.1846 206.572 90.3926 206.572ZM96.3047 199.432V208H95.3207V200.632C94.7927 201.176 94.1207 201.568 93.3047 201.808V200.824C93.6807 200.72 94.0807 200.544 94.5047 200.296C94.8967 200.056 95.2407 199.768 95.5367 199.432H96.3047ZM102.852 199.264C103.684 199.264 104.348 199.472 104.844 199.888C105.34 200.312 105.588 200.88 105.588 201.592C105.588 202.56 105.12 203.2 104.184 203.512C104.696 203.672 105.08 203.916 105.336 204.244C105.624 204.58 105.768 205 105.768 205.504C105.768 206.28 105.496 206.916 104.952 207.412C104.4 207.916 103.68 208.168 102.792 208.168C101.992 208.168 101.328 207.96 100.8 207.544C100.192 207.04 99.852 206.308 99.78 205.348H100.776C100.8 206.02 101.024 206.532 101.448 206.884C101.816 207.18 102.264 207.328 102.792 207.328C103.4 207.328 103.892 207.152 104.268 206.8C104.612 206.456 104.784 206.036 104.784 205.54C104.784 205.028 104.616 204.628 104.28 204.34C103.952 204.06 103.488 203.92 102.888 203.92H102.192V203.152H102.852C103.42 203.152 103.856 203.024 104.16 202.768C104.464 202.504 104.616 202.132 104.616 201.652C104.616 201.18 104.468 200.808 104.172 200.536C103.868 200.256 103.432 200.116 102.864 200.116C102.28 200.116 101.832 200.268 101.52 200.572C101.192 200.876 100.996 201.32 100.932 201.904H99.96C100.032 201.08 100.336 200.432 100.872 199.96C101.368 199.496 102.028 199.264 102.852 199.264ZM115.231 203.308C115.871 203.308 116.363 203.544 116.707 204.016C117.011 204.432 117.163 204.98 117.163 205.66C117.163 206.332 117.011 206.88 116.707 207.304C116.355 207.768 115.863 208 115.231 208C114.591 208 114.099 207.768 113.755 207.304C113.451 206.88 113.299 206.332 113.299 205.66C113.299 204.964 113.451 204.416 113.755 204.016C114.083 203.544 114.575 203.308 115.231 203.308ZM114.199 199.264H114.967L110.167 208.168H109.387L114.199 199.264ZM109.135 199.432C109.775 199.432 110.267 199.668 110.611 200.14C110.915 200.556 111.067 201.104 111.067 201.784C111.067 202.456 110.915 203.004 110.611 203.428C110.259 203.892 109.767 204.124 109.135 204.124C108.495 204.124 108.003 203.892 107.659 203.428C107.355 203.004 107.203 202.456 107.203 201.784C107.203 201.088 107.355 200.54 107.659 200.14C107.987 199.668 108.479 199.432 109.135 199.432ZM115.231 203.956C114.863 203.956 114.595 204.124 114.427 204.46C114.275 204.74 114.199 205.14 114.199 205.66C114.199 206.164 114.275 206.556 114.427 206.836C114.603 207.18 114.871 207.352 115.231 207.352C115.583 207.352 115.851 207.176 116.035 206.824C116.187 206.52 116.263 206.132 116.263 205.66C116.263 205.172 116.187 204.776 116.035 204.472C115.859 204.128 115.591 203.956 115.231 203.956ZM109.135 200.08C108.767 200.08 108.499 200.248 108.331 200.584C108.179 200.864 108.103 201.264 108.103 201.784C108.103 202.288 108.179 202.68 108.331 202.96C108.507 203.304 108.775 203.476 109.135 203.476C109.487 203.476 109.755 203.3 109.939 202.948C110.091 202.644 110.167 202.256 110.167 201.784C110.167 201.288 110.087 200.892 109.927 200.596C109.759 200.252 109.495 200.08 109.135 200.08Z" fill="#FF4834"/>
<path d="M206.922 2.264C207.954 2.264 208.734 2.648 209.262 3.416C209.766 4.136 210.018 5.16 210.018 6.488C210.018 7.832 209.75 8.944 209.214 9.824C208.63 10.72 207.862 11.168 206.91 11.168C205.318 11.168 204.406 10.404 204.174 8.876H205.146C205.33 9.852 205.922 10.34 206.922 10.34C207.578 10.34 208.106 10.008 208.506 9.344C208.882 8.704 209.07 7.904 209.07 6.944L209.058 6.632H209.01C208.794 7.064 208.486 7.408 208.086 7.664C207.686 7.912 207.242 8.036 206.754 8.036C205.93 8.036 205.266 7.764 204.762 7.22C204.274 6.708 204.03 6.036 204.03 5.204C204.03 4.348 204.302 3.648 204.846 3.104C205.382 2.544 206.074 2.264 206.922 2.264ZM206.946 3.092C206.362 3.092 205.89 3.288 205.53 3.68C205.178 4.064 205.002 4.572 205.002 5.204C205.002 5.82 205.178 6.304 205.53 6.656C205.882 7.032 206.354 7.22 206.946 7.22C207.498 7.22 207.966 7.028 208.35 6.644C208.718 6.252 208.902 5.764 208.902 5.18C208.902 4.588 208.726 4.096 208.374 3.704C208.014 3.296 207.538 3.092 206.946 3.092ZM214.213 2.264C215.237 2.264 216.009 2.716 216.529 3.62C216.985 4.388 217.213 5.42 217.213 6.716C217.213 8.012 216.985 9.044 216.529 9.812C216.001 10.716 215.229 11.168 214.213 11.168C213.189 11.168 212.417 10.716 211.897 9.812C211.441 9.044 211.213 8.012 211.213 6.716C211.213 5.42 211.441 4.388 211.897 3.62C212.409 2.716 213.181 2.264 214.213 2.264ZM214.213 3.104C213.445 3.104 212.893 3.516 212.557 4.34C212.317 4.916 212.197 5.708 212.197 6.716C212.197 7.708 212.317 8.5 212.557 9.092C212.893 9.916 213.445 10.328 214.213 10.328C214.981 10.328 215.533 9.916 215.869 9.092C216.117 8.484 216.241 7.692 216.241 6.716C216.241 5.724 216.117 4.932 215.869 4.34C215.533 3.516 214.981 3.104 214.213 3.104ZM219.393 9.572C219.601 9.572 219.773 9.64 219.909 9.776C220.053 9.904 220.125 10.072 220.125 10.28C220.125 10.488 220.053 10.66 219.909 10.796C219.757 10.932 219.585 11 219.393 11C219.201 11 219.029 10.932 218.877 10.796C218.733 10.652 218.661 10.48 218.661 10.28C218.661 10.072 218.733 9.904 218.877 9.776C219.013 9.64 219.185 9.572 219.393 9.572ZM224.657 2.264C225.489 2.264 226.153 2.472 226.649 2.888C227.145 3.312 227.393 3.88 227.393 4.592C227.393 5.56 226.925 6.2 225.989 6.512C226.501 6.672 226.885 6.916 227.141 7.244C227.429 7.58 227.573 8 227.573 8.504C227.573 9.28 227.301 9.916 226.757 10.412C226.205 10.916 225.485 11.168 224.597 11.168C223.797 11.168 223.133 10.96 222.605 10.544C221.997 10.04 221.657 9.308 221.585 8.348H222.581C222.605 9.02 222.829 9.532 223.253 9.884C223.621 10.18 224.069 10.328 224.597 10.328C225.205 10.328 225.697 10.152 226.073 9.8C226.417 9.456 226.589 9.036 226.589 8.54C226.589 8.028 226.421 7.628 226.085 7.34C225.757 7.06 225.293 6.92 224.693 6.92H223.997V6.152H224.657C225.225 6.152 225.661 6.024 225.965 5.768C226.269 5.504 226.421 5.132 226.421 4.652C226.421 4.18 226.273 3.808 225.977 3.536C225.673 3.256 225.237 3.116 224.669 3.116C224.085 3.116 223.637 3.268 223.325 3.572C222.997 3.876 222.801 4.32 222.737 4.904H221.765C221.837 4.08 222.141 3.432 222.677 2.96C223.173 2.496 223.833 2.264 224.657 2.264ZM231.888 2.264C233.472 2.264 234.384 3.028 234.624 4.556H233.652C233.46 3.58 232.868 3.092 231.876 3.092C231.196 3.092 230.668 3.424 230.292 4.088C229.916 4.696 229.728 5.496 229.728 6.488C229.728 6.592 229.732 6.696 229.74 6.8H229.788C230.012 6.344 230.32 6 230.712 5.768C231.088 5.52 231.532 5.396 232.044 5.396C232.86 5.396 233.52 5.66 234.024 6.188C234.52 6.724 234.768 7.404 234.768 8.228C234.768 9.068 234.496 9.768 233.952 10.328C233.392 10.888 232.7 11.168 231.876 11.168C230.844 11.168 230.06 10.78 229.524 10.004C229.028 9.284 228.78 8.264 228.78 6.944C228.78 5.568 229.048 4.456 229.584 3.608C230.144 2.712 230.912 2.264 231.888 2.264ZM231.852 6.212C231.292 6.212 230.824 6.404 230.448 6.788C230.08 7.164 229.896 7.652 229.896 8.252C229.896 8.86 230.072 9.352 230.424 9.728C230.784 10.136 231.26 10.34 231.852 10.34C232.42 10.34 232.888 10.144 233.256 9.752C233.616 9.344 233.796 8.836 233.796 8.228C233.796 7.628 233.62 7.144 233.268 6.776C232.916 6.4 232.444 6.212 231.852 6.212ZM244.231 6.308C244.871 6.308 245.363 6.544 245.707 7.016C246.011 7.432 246.163 7.98 246.163 8.66C246.163 9.332 246.011 9.88 245.707 10.304C245.355 10.768 244.863 11 244.231 11C243.591 11 243.099 10.768 242.755 10.304C242.451 9.88 242.299 9.332 242.299 8.66C242.299 7.964 242.451 7.416 242.755 7.016C243.083 6.544 243.575 6.308 244.231 6.308ZM243.199 2.264H243.967L239.167 11.168H238.387L243.199 2.264ZM238.135 2.432C238.775 2.432 239.267 2.668 239.611 3.14C239.915 3.556 240.067 4.104 240.067 4.784C240.067 5.456 239.915 6.004 239.611 6.428C239.259 6.892 238.767 7.124 238.135 7.124C237.495 7.124 237.003 6.892 236.659 6.428C236.355 6.004 236.203 5.456 236.203 4.784C236.203 4.088 236.355 3.54 236.659 3.14C236.987 2.668 237.479 2.432 238.135 2.432ZM244.231 6.956C243.863 6.956 243.595 7.124 243.427 7.46C243.275 7.74 243.199 8.14 243.199 8.66C243.199 9.164 243.275 9.556 243.427 9.836C243.603 10.18 243.871 10.352 244.231 10.352C244.583 10.352 244.851 10.176 245.035 9.824C245.187 9.52 245.263 9.132 245.263 8.66C245.263 8.172 245.187 7.776 245.035 7.472C244.859 7.128 244.591 6.956 244.231 6.956ZM238.135 3.08C237.767 3.08 237.499 3.248 237.331 3.584C237.179 3.864 237.103 4.264 237.103 4.784C237.103 5.288 237.179 5.68 237.331 5.96C237.507 6.304 237.775 6.476 238.135 6.476C238.487 6.476 238.755 6.3 238.939 5.948C239.091 5.644 239.167 5.256 239.167 4.784C239.167 4.288 239.087 3.892 238.927 3.596C238.759 3.252 238.495 3.08 238.135 3.08Z" fill="#00D77C"/>
<line x1="124.5" y1="-2.18557e-08" x2="124.5" y2="219" stroke="#9CA3AC" stroke-dasharray="10 10"/>
<defs>
<linearGradient id="paint0_linear_0_1" x1="40.2937" y1="174.1" x2="40.2937" y2="198.633" gradientUnits="userSpaceOnUse">
<stop stop-color="#FF4834" stop-opacity="0"/>
<stop offset="1" stop-color="#FF4834" stop-opacity="0.3"/>
</linearGradient>
<linearGradient id="paint1_linear_0_1" x1="2.88032" y1="174.1" x2="0.298034" y2="160.757" gradientUnits="userSpaceOnUse">
<stop stop-color="#00D77C" stop-opacity="0"/>
<stop offset="1" stop-color="#00D77C" stop-opacity="0.3"/>
</linearGradient>
<linearGradient id="paint2_linear_0_1" x1="191.928" y1="10.8" x2="183.933" y2="173.74" gradientUnits="userSpaceOnUse">
<stop stop-color="#00D77C" stop-opacity="0.3"/>
<stop offset="1" stop-color="#00D77C" stop-opacity="0"/>
</linearGradient>
</defs>
</svg>

<svg width="254" height="220" fill="none" xmlns="http://www.w3.org/2000/svg"><path stroke="#fff" stroke-opacity=".06" stroke-dasharray="4 4" d="M0 9.5h254M0 39.5h254M0 69.5h254M0 99.5h254m-254 30h254m-254 30h254m-254 30h254"/><path stroke="#fff" stroke-opacity=".1" d="M0 219.5h254"/><path d="m10.913 183.683-3.191-9.966h61.402l-1.98 3.45-1.871 9.583-.44 9.2-1.981 6.133h-1.43L60.54 204l-2.53-1.917-1.101-3.45-2.201 3.45-.99-3.45v-2.683l-2.311-6.133-9.684-8.434h-2.2l-1.321 2.3-.55 6.134h-1.43l-1.211-1.917H31.38l-1.32 4.217h-3.632l-1.21 1.916-.881 1.917-3.191-6.133h-3.521l-1.761-1.917-2.641-4.217h-2.31Z" fill="url(#a)"/><path d="m7.722 173.717 3.191 9.966h2.311l2.641 4.217 1.76 1.917h3.522l3.191 6.133.88-1.917 1.21-1.916h3.632l1.32-4.217h3.631l1.211 1.917h1.43l.551-6.134 1.32-2.3h2.201l9.684 8.434 2.31 6.133v2.683l.99 3.45 2.202-3.45 1.1 3.45L60.541 204l.88-1.917h1.43l1.981-6.133.44-9.2 1.871-9.583 1.981-3.45" stroke="#FF4834" stroke-width="2"/><path d="M3.54 169.5 2 160.3v13.417h5.722l-1.76-4.217H3.54Z" fill="url(#b)"/><path d="m2 160.3 1.54 9.2h2.421l1.761 4.217" stroke="#00D77C" stroke-width="2"/><path d="m74.736 164.133-5.612 9.584H253V33.033l-3.081 3.45h-4.952L241.996 20l-8.693 3.067-11.444 1.916-6.603 3.067-7.152 8.433-5.502-3.45-3.411 12.65-7.153 10.734h-6.162l-4.952 12.266-3.411 2.684-6.052 8.433-4.732 2.3-2.861-2.3-3.851-4.6h-3.302l-4.511 2.3-6.933-6.133-4.951 14.95-3.302 7.283-4.401 8.05h-4.842l-1.981-8.05-3.411-5.367-2.311 2.3-1.87 8.817-2.861 4.983h-4.622l-4.952 7.284-1.65 8.433-2.311 5.367-2.861 3.066-1.54 12.267-3.082 14.183-3.301-6.9h-2.2l-1.872 6.9-2.97 9.2h-2.532l-1.54-3.833-1.54 3.833h-3.632Z" fill="url(#c)"/><path d="m69.124 173.717 5.612-9.584h3.631l1.54-3.833 1.541 3.833h2.531l2.971-9.2 1.871-6.9h2.2l3.302 6.9 3.081-14.183 1.54-12.267 2.862-3.066 2.311-5.367 1.65-8.433 4.952-7.284h4.622l2.861-4.983 1.87-8.817 2.311-2.3 3.411 5.367 1.981 8.05h4.842l4.401-8.05 3.302-7.283 4.951-14.95 6.933 6.133 4.511-2.3h3.302l3.851 4.6 2.861 2.3 4.732-2.3 6.052-8.433 3.411-2.684 4.952-12.266h6.162l7.153-10.734 3.411-12.65 5.502 3.45 7.152-8.433 6.603-3.067 11.444-1.916L241.996 20l2.971 16.483h4.952l3.081-3.45" stroke="#00D77C" stroke-width="2"/><circle cx="61" cy="205" r="4" fill="#FF4834"/><circle cx="241" cy="20" r="4" fill="#00D77C"/><path d="M67.752 204.484h6.06v.816h-6.06v-.816Zm10.386-5.22c.792 0 1.444.228 1.956.684.512.464.768 1.068.768 1.812 0 .736-.28 1.408-.84 2.016-.328.344-.92.804-1.776 1.38-1.088.728-1.712 1.384-1.872 1.968h4.5V208h-5.712c0-.792.284-1.5.852-2.124.368-.416.988-.924 1.86-1.524.68-.488 1.128-.844 1.344-1.068.44-.48.66-.992.66-1.536 0-.52-.156-.924-.468-1.212-.312-.288-.748-.432-1.308-.432-.6 0-1.052.2-1.356.6-.344.392-.52.964-.528 1.716h-.984c0-.952.268-1.716.804-2.292.528-.576 1.228-.864 2.1-.864Zm7.16 0c.831 0 1.495.208 1.991.624.496.424.744.992.744 1.704 0 .968-.468 1.608-1.404 1.92.512.16.896.404 1.152.732.288.336.432.756.432 1.26 0 .776-.272 1.412-.816 1.908-.552.504-1.272.756-2.16.756-.8 0-1.464-.208-1.992-.624-.608-.504-.948-1.236-1.02-2.196h.996c.024.672.248 1.184.672 1.536.368.296.816.444 1.344.444.608 0 1.1-.176 1.476-.528.344-.344.516-.764.516-1.26 0-.512-.168-.912-.504-1.2-.328-.28-.792-.42-1.392-.42h-.696v-.768h.66c.568 0 1.004-.128 1.308-.384.304-.264.456-.636.456-1.116 0-.472-.148-.844-.444-1.116-.304-.28-.74-.42-1.308-.42-.584 0-1.032.152-1.344.456-.328.304-.524.748-.588 1.332h-.972c.072-.824.376-1.472.912-1.944.496-.464 1.156-.696 1.98-.696Zm5.095 7.308a.7.7 0 0 1 .516.204.642.642 0 0 1 .216.504.68.68 0 0 1-.216.516.753.753 0 0 1-1.032 0 .704.704 0 0 1-.216-.516c0-.208.072-.376.216-.504a.7.7 0 0 1 .516-.204Zm5.912-7.14V208h-.984v-7.368c-.528.544-1.2.936-2.016 1.176v-.984c.376-.104.776-.28 1.2-.528a4.49 4.49 0 0 0 1.032-.864h.768Zm6.547-.168c.832 0 1.496.208 1.992.624.496.424.744.992.744 1.704 0 .968-.468 1.608-1.404 1.92.512.16.896.404 1.152.732.288.336.432.756.432 1.26 0 .776-.272 1.412-.816 1.908-.552.504-1.272.756-2.16.756-.8 0-1.464-.208-1.992-.624-.608-.504-.948-1.236-1.02-2.196h.996c.024.672.248 1.184.672 1.536.368.296.816.444 1.344.444.608 0 1.1-.176 1.476-.528.344-.344.516-.764.516-1.26 0-.512-.168-.912-.504-1.2-.328-.28-.792-.42-1.392-.42h-.696v-.768h.66c.568 0 1.004-.128 1.308-.384.304-.264.456-.636.456-1.116 0-.472-.148-.844-.444-1.116-.304-.28-.74-.42-1.308-.42-.584 0-1.032.152-1.344.456-.328.304-.524.748-.588 1.332h-.972c.072-.824.376-1.472.912-1.944.496-.464 1.156-.696 1.98-.696Zm12.379 4.044c.64 0 1.132.236 1.476.708.304.416.456.964.456 1.644 0 .672-.152 1.22-.456 1.644-.352.464-.844.696-1.476.696-.64 0-1.132-.232-1.476-.696-.304-.424-.456-.972-.456-1.644 0-.696.152-1.244.456-1.644.328-.472.82-.708 1.476-.708Zm-1.032-4.044h.768l-4.8 8.904h-.78l4.812-8.904Zm-5.064.168c.64 0 1.132.236 1.476.708.304.416.456.964.456 1.644 0 .672-.152 1.22-.456 1.644-.352.464-.844.696-1.476.696-.64 0-1.132-.232-1.476-.696-.304-.424-.456-.972-.456-1.644 0-.696.152-1.244.456-1.644.328-.472.82-.708 1.476-.708Zm6.096 4.524c-.368 0-.636.168-.804.504-.152.28-.228.68-.228 1.2 0 .504.076.896.228 1.176.176.344.444.516.804.516.352 0 .62-.176.804-.528.152-.304.228-.692.228-1.164 0-.488-.076-.884-.228-1.188-.176-.344-.444-.516-.804-.516Zm-6.096-3.876c-.368 0-.636.168-.804.504-.152.28-.228.68-.228 1.2 0 .504.076.896.228 1.176.176.344.444.516.804.516.352 0 .62-.176.804-.528.152-.304.228-.692.228-1.164 0-.496-.08-.892-.24-1.188-.168-.344-.432-.516-.792-.516Z" fill="#FF4834"/><path d="M206.922 2.264c1.032 0 1.812.384 2.34 1.152.504.72.756 1.744.756 3.072 0 1.344-.268 2.456-.804 3.336-.584.896-1.352 1.344-2.304 1.344-1.592 0-2.504-.764-2.736-2.292h.972c.184.976.776 1.464 1.776 1.464.656 0 1.184-.332 1.584-.996.376-.64.564-1.44.564-2.4l-.012-.312h-.048a2.561 2.561 0 0 1-.924 1.032c-.4.248-.844.372-1.332.372-.824 0-1.488-.272-1.992-.816-.488-.512-.732-1.184-.732-2.016 0-.856.272-1.556.816-2.1.536-.56 1.228-.84 2.076-.84Zm.024.828c-.584 0-1.056.196-1.416.588-.352.384-.528.892-.528 1.524 0 .616.176 1.1.528 1.452.352.376.824.564 1.416.564a1.91 1.91 0 0 0 1.404-.576c.368-.392.552-.88.552-1.464 0-.592-.176-1.084-.528-1.476-.36-.408-.836-.612-1.428-.612Zm7.267-.828c1.024 0 1.796.452 2.316 1.356.456.768.684 1.8.684 3.096s-.228 2.328-.684 3.096c-.528.904-1.3 1.356-2.316 1.356-1.024 0-1.796-.452-2.316-1.356-.456-.768-.684-1.8-.684-3.096s.228-2.328.684-3.096c.512-.904 1.284-1.356 2.316-1.356Zm0 .84c-.768 0-1.32.412-1.656 1.236-.24.576-.36 1.368-.36 2.376 0 .992.12 1.784.36 2.376.336.824.888 1.236 1.656 1.236.768 0 1.32-.412 1.656-1.236.248-.608.372-1.4.372-2.376 0-.992-.124-1.784-.372-2.376-.336-.824-.888-1.236-1.656-1.236Zm5.18 6.468a.7.7 0 0 1 .516.204.642.642 0 0 1 .216.504.68.68 0 0 1-.216.516.753.753 0 0 1-1.032 0 .704.704 0 0 1-.216-.516c0-.208.072-.376.216-.504a.7.7 0 0 1 .516-.204Zm5.264-7.308c.832 0 1.496.208 1.992.624.496.424.744.992.744 1.704 0 .968-.468 1.608-1.404 1.92.512.16.896.404 1.152.732.288.336.432.756.432 1.26 0 .776-.272 1.412-.816 1.908-.552.504-1.272.756-2.16.756-.8 0-1.464-.208-1.992-.624-.608-.504-.948-1.236-1.02-2.196h.996c.024.672.248 1.184.672 1.536.368.296.816.444 1.344.444.608 0 1.1-.176 1.476-.528.344-.344.516-.764.516-1.26 0-.512-.168-.912-.504-1.2-.328-.28-.792-.42-1.392-.42h-.696v-.768h.66c.568 0 1.004-.128 1.308-.384.304-.264.456-.636.456-1.116 0-.472-.148-.844-.444-1.116-.304-.28-.74-.42-1.308-.42-.584 0-1.032.152-1.344.456-.328.304-.524.748-.588 1.332h-.972c.072-.824.376-1.472.912-1.944.496-.464 1.156-.696 1.98-.696Zm7.231 0c1.584 0 2.496.764 2.736 2.292h-.972c-.192-.976-.784-1.464-1.776-1.464-.68 0-1.208.332-1.584.996-.376.608-.564 1.408-.564 2.4 0 .104.004.208.012.312h.048c.224-.456.532-.8.924-1.032.376-.248.82-.372 1.332-.372.816 0 1.476.264 1.98.792.496.536.744 1.216.744 2.04 0 .84-.272 1.54-.816 2.1-.56.56-1.252.84-2.076.84-1.032 0-1.816-.388-2.352-1.164-.496-.72-.744-1.74-.744-3.06 0-1.376.268-2.488.804-3.336.56-.896 1.328-1.344 2.304-1.344Zm-.036 3.948c-.56 0-1.028.192-1.404.576-.368.376-.552.864-.552 1.464 0 .608.176 1.1.528 1.476.36.408.836.612 1.428.612.568 0 1.036-.196 1.404-.588.36-.408.54-.916.54-1.524 0-.6-.176-1.084-.528-1.452-.352-.376-.824-.564-1.416-.564Zm12.379.096c.64 0 1.132.236 1.476.708.304.416.456.964.456 1.644 0 .672-.152 1.22-.456 1.644-.352.464-.844.696-1.476.696-.64 0-1.132-.232-1.476-.696-.304-.424-.456-.972-.456-1.644 0-.696.152-1.244.456-1.644.328-.472.82-.708 1.476-.708Zm-1.032-4.044h.768l-4.8 8.904h-.78l4.812-8.904Zm-5.064.168c.64 0 1.132.236 1.476.708.304.416.456.964.456 1.644 0 .672-.152 1.22-.456 1.644-.352.464-.844.696-1.476.696-.64 0-1.132-.232-1.476-.696-.304-.424-.456-.972-.456-1.644 0-.696.152-1.244.456-1.644.328-.472.82-.708 1.476-.708Zm6.096 4.524c-.368 0-.636.168-.804.504-.152.28-.228.68-.228 1.2 0 .504.076.896.228 1.176.176.344.444.516.804.516.352 0 .62-.176.804-.528.152-.304.228-.692.228-1.164 0-.488-.076-.884-.228-1.188-.176-.344-.444-.516-.804-.516Zm-6.096-3.876c-.368 0-.636.168-.804.504-.152.28-.228.68-.228 1.2 0 .504.076.896.228 1.176.176.344.444.516.804.516.352 0 .62-.176.804-.528.152-.304.228-.692.228-1.164 0-.496-.08-.892-.24-1.188-.168-.344-.432-.516-.792-.516Z" fill="#00D77C"/><path stroke="#9CA3AC" stroke-dasharray="10 10" d="M124.5 0v219"/><defs><linearGradient id="a" x1="40.294" y1="174.1" x2="40.294" y2="198.633" gradientUnits="userSpaceOnUse"><stop stop-color="#FF4834" stop-opacity="0"/><stop offset="1" stop-color="#FF4834" stop-opacity=".3"/></linearGradient><linearGradient id="b" x1="2.88" y1="174.1" x2=".298" y2="160.757" gradientUnits="userSpaceOnUse"><stop stop-color="#00D77C" stop-opacity="0"/><stop offset="1" stop-color="#00D77C" stop-opacity=".3"/></linearGradient><linearGradient id="c" x1="191.928" y1="10.8" x2="183.933" y2="173.74" gradientUnits="userSpaceOnUse"><stop stop-color="#00D77C" stop-opacity=".3"/><stop offset="1" stop-color="#00D77C" stop-opacity="0"/></linearGradient></defs></svg>
